X: 92
T:Walking that Pretty Girl Home
S:https://tunearch.org/wiki/Walking_that_Pretty_Girl_Home
M:C|
L:1/8
R:Reel
K:G
DE|G2G2 GABA|GAGE D2DE|GGGA B-ABc|d2de d2DE|
G2G2GBBA|GAGE D2 DE|GGBB ABAF|GG-GG G2:|
|:BB|dd-de d2GG|BABd BABB|d2de dBGB|[A3A3]A A2Bc|
ddde dBGG|BABd BGDD|EEGG BBAF|G3G G2:|

